X:1
T:The Top Of The Maol
R:polka
M:2/4
L:1/8
K:Edor
|: "Em" E2 EF/A/ | BA FA | "D" D2           DE  |      FA FD |
   "Em" E2 EF/A/ | BA FA | "G" B/c/d/B/ "D" AF  | "Em" E2 E  |1 D :|2 A |
|: "Em" Be ed/e/ | fe d2 | "G" Bd           d>e |      dB BA |
   "Em" Be ed/e/ | fe d2 | "G" B/c/d/B/ "D" AF  | "Em" E2 E  |1 A :|2 D |
